X:1
T:East Virginia Gals
M:6/8
L:1/4
K:C
 G/2| A A/2 G G/2| F F/2 D D/2| A, A,/2 ^C C/2| D3/2- F3/2| A3/2 A3/2|\
 c3/2- c A/2| c c/2 A A/2| c3/2- d3/2| A3/2 A A/2| d3/2- d A/2| c c/2 A3/2|\
 c3/2- d3/2| A3/2 G G/2| F F/2 D3/2| A, A,/2 C3/2| D3/2- F3/2| A A/2 G G/2|\
 F3/2 D3/2| A, A,/2 C3/2| D3|
